X:113
T:Trip from Slade, A
M:6/8
L:1/8
B:Thompson's Compleat Collection of 200 Favourite Country Dances, vol. 2 (London, 1765)
Z:Transcribed and edited by Flynn Titford-Mock, 2007
Z:abc's:AK/Fiddler's Companion
K:Gmin
dB | GGG GdB | AAA Aec | BcA GA^F | GGG GdB | GGG GdB | AAA Aec |
BcA GA^F | GGG G :: de | fdB Bdf | ecA Ace | dBG GBd | ddd dde | fdB Bdf |
ecA Ace | dBG GBd | dDD DdB | GGG GdB | AAA Aec | BcA GA^F | GGG G :|

